symbols/web/camera_outdoor/materialsymbolsoutlined/camera_outdoor_fill1_24px.svg

<svg xmlns="http://www.w3.org/2000/svg" height="24" width="24"><path d="M13 18q-.425 0-.712-.288Q12 17.425 12 17v-4q0-.425.288-.713Q12.575 12 13 12h4q.425 0 .712.287.288.288.288.713v1l2-1.05v4.1L18 16v1q0 .425-.288.712Q17.425 18 17 18Zm-9 3V9l8-6 8 6v2h-7q-.825 0-1.412.587Q11 12.175 11 13v4q0 .825.588 1.413Q12.175 19 13 19h7v2Z"/></svg>

<svg xmlns="http://www.w3.org/2000/svg" height="24" width="24"><path d="M13 18Q12.575 18 12.288 17.712Q12 17.425 12 17V13Q12 12.575 12.288 12.287Q12.575 12 13 12H17Q17.425 12 17.712 12.287Q18 12.575 18 13V14L20 12.95V17.05L18 16V17Q18 17.425 17.712 17.712Q17.425 18 17 18ZM4 21V9L12 3L20 9V11H13Q12.175 11 11.588 11.587Q11 12.175 11 13V17Q11 17.825 11.588 18.413Q12.175 19 13 19H20V21Z"/></svg>
